X: 580
T:Leather Britches
C:Traditional - Arr. Rickie Simpkins
M:4/4
L:1/8
Q:1/8=448
K:C
|:DEGBA2B2|DEGBA2B2|DEGBA2B2|GEDB,A,/_B,/A,G,2|!
DEGBA2B2|DEGBA2B2|B/c/BAG^FEDF|EDE^FG4:|!
BdzBd2e^f|g^fgagedc|BdzBd2e^f|gedBAGGA|!
BdzBd2e^f|g^fgagfef| gedBAGEG|DB,DGEGGA|!
BddBd2e^f|g^fgagedc|BddBd2e^f|gedBAGGG|!
BddBd2e^f|g^fgagfef|gedBAG^FG|DB,DGEGz2|

